X:259
T: Shmelke's Nigun
O:klezmer
M: 2/4
L: 1/8
K: Gm
|: "Gm"GG/G/ GG | "Cm"cc "Gm"G2 | "Cm"cc "Gm"GA | "D7"BA "Gm"G2 \
| GG/G/ GG | "Cm"cc "Gm"G2 |1 "Cm"cB AG | "Gm"B2 z2 :|2 "Cm"cB "D7"AB | "Gm"GG AB ||
|: "Cm"Mc2 Mc2 | ze dc | ed ce- | ed c2 \
| "Bb"MB2 MB2 | zd cB |1 dc Bd- | dc B2 :|2 dc Bc- | "Cm"c4 |]





